X:1284
T:The Musical Priest
R:Reel
N:Collected by McFadden
B:O'Neill's 1284
Z:Transcribed by Trish O'Neil
M:C|
L:1/8
K:Bm
BA|FBBA BABd|cBAf ecBA|FBcBAB2Bd|cBAc "H"B2:|
Bc|d2dc dfed|cAeg faec|d2dc defb|afecB2Bc|
dcdc dfed|cAeg faec|dcBc defb|afecB2||
Bc|dB 3BBB bafb|afec ABce|dB 3BBB bafb|afecB2de|
fbbc' bafb|afec ABce|dcBc defb|afec dB"D.C."cA|]
